dist/svg/registry.svg

<!-- Generated by Trend Micro Style Portal -->
<svg version="1.1" xmlns="http://www.w3.org/2000/svg" width="16" height="16" viewBox="0 0 16 16">
  <title>registry</title>
  <path fill="rgb(34,34,34)" d="M0 3h6v6h-6zM0 16h6v-6h-6zM7 16h6v-6h-6zM15 1h-3v3h3zM13 5l-2 2 2 2 2-2zM11 4l-2-2-2 2 2 2z"></path>
</svg>

<svg width="16" height="16" viewBox="0 0 16 16" fill="rgb(34, 34, 34)" xmlns="http://www.w3.org/2000/svg"><title>registry</title><path d="M0 3H6V9H0V3ZM0 16H6V10H0V16ZM7 16H13V10H7V16ZM15 1H12V4H15V1ZM13 5L11 7L13 9L15 7L13 5ZM11 4L9 2L7 4L9 6L11 4Z" fill="rgb(34, 34, 34)" fill-opacity="1.00"/></svg>
